X:958
T:The Market Town
N:"Collected by J.O'Neill"
B:O'Neill's 958
Z:Transcribed by Dan G. Petersen, dangp@post6.tele.dk
M:6/8
L:1/8
K:A
E|E>FE ECE|E>FA A2f|e>dc Bcd|c>BA FGA|
E>FE ECE|E>FA A2f|edc BAB|cAA A2:|
(c/d/)|e>fe ece|f2g a2f|e>dc Bcd|c>BA F2F|
[1 e>fe ece|f2g a2f|edc BAB| cAA A2:|
[2 Ace def|cde fga|edc BAB|cAA A2:|


